X: 21337
T: Kerfunten, The
R: jig
M: 6/8
K: Dmajor
|:F3 FED|AF/G/A Bcd|AF/G/A dAF|E3 EFG|
F3 FED|AF/G/A Bcd|AF/G/A dAF|1 GEc D2E:|2 GEc DF/G/A||
|:dB/c/d def|B3 BAF|d3 def|fed e2c|
dB/c/d def|BcB Bcd|AF/G/A dAF|1 GEc DF/G/A:|2 GEc D2E||

